X:1
T:O salutaris hostia - Cesar Franck
T:#
%%score [ 1 2 ] { ( 3 6 ) | ( 4 5 ) }
L:1/8
Q:1/4=120
M:2/4
K:D
V:1 treble nm="Soprano" snm="S"
V:2 treble nm="Alto" snm="A"
V:3 treble nm="Accomp."
V:6 treble 
V:4 bass 
V:5 bass 
V:1
"^O Salutaris Hostia" z4 x4 | z4 x4 | z4 x4 | z4 x4 | (D4- x8 | DE) AG x8 | F4- x8 | FG cB x4 | %8
w: ||||O|* * sa- lu-|ta­|* ris hos- ti-|
 A2 z2 x4 |"^César Franck\n(1822-1890)" (A4- x4 | AB) GE | D4- | DF CD | E2 z2 | B2 c>B | B2 A2 | %16
w: a,|O|* * sa- lu-|ta­|* ris hos- ti-|a,|Quae coe- li|pan- dis|
 (B2 (3dc)B | A4 x4 | f2 gf x8 | (e2 d2) x4 | z c dB x4 | A4 | (=f2 gf) x4 | e2 d2 x4 | cc d_B x4 | %25
w: os­ * * ti-|um,|Bel- la pre-|munt *|hos- ti- li-|a:|Da­ * *|ro- bur|fer aux- i- li-|
 A4 x4 | =B2 (d>E) x4 | F4 | GG B>c | d4 x4 | z4 x8 | z4 x8 | z4 x8 | z4 x4 | z4 x4 | z4 | z4 | %37
w: um.|da ro­ *|bur|fer aux- i- li-|um,||||||||
 z4 x4 | A4- x4 | AB ed | =c4- x4 | cd =g=f x4 | e4 x4 | z4 | z4 | z4 | z4 | z4 | (_B4- | %49
w: |O|* * sa- lu-|ta­|* ris hos- ti-|a,||||||O|
 B=c) =f_e x4 | _d4- | d_e [e_a]_g x4 | =f4 x4 | z4 | z4 | z4 | z4 | z4 | B2 f>c | c4- | cB ^AB | %61
w: * * sa- lu-|ta­|* ris hos- ti-|a,||||||Quae coe- li|pan­|* dis os- ti-|
 c4 | z4 | z4 x4 | z4 x4 | z4 x4 | (D4- | DE) AG | F4- | FG cB | A2 z2 x4 | (A4- x4 | AB) GE | %73
w: um.|||||Un­|* * i tri-|no­|* que Do- mi-|no|Sit|* * sem- pi-|
 D4- | DF CD | E2 z2 x4 | d2 c>B x8 | A2 D2 x8 | (d>e (3dc)B x4 | A4 | f2 gf x4 | e2 d2 | %82
w: ter­|* na glo- ri-|a.|Qui vi- tam|si- ne|ter­ * * * mi-|no,|No- bis do-|net in|
 z c (dB) | A4 | =f2 (gf) x4 | (e2 d2) | cc d_B | A4 | B2 d>E x4 | F4 x4 | d2 f>^G x8 | A4 x8 | %92
w: pa- tri­ *|a,|Qui vi­ *|tam *|si- ne ter- mi-|no,|No- bis do-|net,|no- bis do-|net,|
 (g2 d2) | (B2 G2) | d4- | d2 (D2- | DE) (FG) x8 | F2- F>E x4 | D4- | D4 x8 |] %100
w: no­ *|bis *|do­|* net,|* * no­ *|bis * do-|net.||
V:2
 z4 x4 | z4 x4 | z4 x4 | z4 x4 | z4 x8 | z4 x8 | (D4- x8 | DE) AG x4 | (FE) D2 x4 | F4- x4 | %10
w: ||||||O|* * sa- lu-|ta­ * ris,|O|
 F2 EC | (D2 G2) | F2 GF | E2 z2 | G2 G>G | F2 F2 | ^G2 G2 | !courtesy!=G4 x4 | F2 BA x8 | %19
w: * sa- lu-|ta­ *|ris hos- ti-|a,|Quae coe- li|pan- dis|os- ti-|um,|Bel- la pre-|
 (G2 F2) x4 | z E FG x4 | F4 | (=F2 _BA) x4 | G2 =F2 x4 | EE =FG x4 | ^F4 x4 | z4 x4 | A2 (d>F) | %28
w: munt *|hos- ti- li-|a:|Da­ * *|ro- bur|fer aux- i- li-|um.||da ro­ *|
 (G4 | F4) x4 | z4 x8 | z4 x8 | z4 x8 | z4 x4 | z4 x4 | z4 | z4 | z4 x4 | z2 A2- x4 | A^G FG | %40
w: bur||||||||||O|* * sa- lu-|
 A4- x4 | AB AB x4 | =c4 x4 | z4 | z4 | z4 | z4 | z4 | (_B4- | B_A) _GA x4 | _B4- | B=c _Ac x4 | %52
w: ta­|* ris hos- ti-|a,||||||O|* * sa- lu-|ta­|* ris hos- ti-|
 _B4 x4 | z4 | z4 | z4 | z4 | z4 | B2 B>B | ^A4 | ^G2 GG | ^A4 | z4 | z4 x4 | z4 x4 | z4 x4 | z4 | %67
w: a,||||||Quae coe- li|pan-|dis os- ti-|um.||||||
 z4 | D4- | (DE) AG | (FE D2) x4 | F4- x4 | F2 EC | (D2 G2) | F2 GF | E2 z2 x4 | F2 G>G x8 | %77
w: |Un­|* * i tri-|no * *|Sit|* sem- pi-|ter­ *|na glo- ri-|a.|Qui vi- tam|
 F2 D2 x8 | B2 ^G2 x4 | =G4 | A2 BA x4 | G2 F2 | z A BG | A4 | A2 (_BA) x4 | (G2 =F2) | EE =FG | %87
w: si- ne|ter- mi-|no,|No- bis do-|net in|pa- tri­ *|a,|Qui vi­ *|tam *|si- ne ter- mi-|
 ^F4 | z4 x4 | A2 d>A x4 | ^G4 x8 | z A d>A x8 | B4 | (G2 D2) | (d2 =c2 | B2) (d2- | d3 B) x8 | %97
w: no,||No- bis do-|net,|no- bis do-|net,|no­ *|bis *|* no­||
 A2- A>G x4 | F4- | F4 x8 |] %100
w: bis * do-|net.||
V:3
 f2 a>d x4 | c4- x4 | cBAB x4 | A4 x4 | [DF]A,[FA]A, x8 | [DF][CE][B,D][CE] x8 | [DF]A,[FA]A, x8 | %7
 [DF][DG][DAc][EGB] x4 | [FA]A,DF x4 | A2 B2 x4 | c2 A2 | [Fd]2 x2 | fd A2- | A2 A2 | B2 c2 | %15
 B2 A2 | B2 d2- | d2 c2 x4 | A2 BA x8 | A4- x4 | A4- x4 | A4 | A2 _BA x4 | A4- x4 | A4 x4 | A4 x4 | %26
 [E^G]4 x4 | A4- | A4- | A4 x4 | [=FA]4 x8 | [FA]4 x8 | [DFA]4 x8 | A4 x4 | A4 x4 | A4 | A^G^FG | %37
 [=CA]2 z2 x4 | =c4- x4 | cBed | [A=c]4- x4 | [Ac]dg=f x4 | e4 x4 | =f4- | fg_e=c | _B4- | Bd=A=B | %47
 [A=c]4 | [_B_d]4- | [Bd][_A=c] =f_e x4 | _d4- | d_e_a_g x4 | =f4 x4 | ^f4- | f^g=ec | B4- | %56
 B^d^AB | [F^Ac]4 | F4- | F4- | F4- | F4 | B4 | A4- x4 | A4- x4 | A4- x4 | A4 | A4 | A4- | %69
 AG[Ac][GB] | [FA]A,DF x4 | A2 B2 x4 | c2 A2 | [Fd]2 x2 | fd A2 | [EA][GB][FA][EG] x4 | %76
 [DF]2 [EG]2 x8 | [FA]2 [DF]2 x8 | B2 d2- x4 | d2 c2 | A2 BA x4 | A4- | A4- | A4 | A2 _BA x4 | A4 | %86
 A4 | A4 | [Ed]4 x4 | [Fd]4 x4 | x12 | x12 | =g2 d2 | B2 [DG]2 | F2 G2 | A2 =c2 | [DGB]4 x8 | %97
 A4- x4 | A2 [A,DF]2 | [A,DF]4 x8 |] %100
V:4
 x4 [DF]4 | x4 [EG]4 | x4 [DG]4 | x4 [CG]4 | x12 | x12 | x12 | x4 A,B, B,C | x4 D2 z2 | x8 | E4 | %11
 DA,EA, | F2 ED | C3 z | D2 E2 | D4 | D2 E2 | x8 | x12 | x8 | x8 | A,DA,F, | x8 | x8 | x8 | x8 | %26
 x4 D4- | D4 | C4 | x8 | x12 | x12 | x12 | x8 | x8 | =C4- | C=B,A,B, | x4 A,E,A,=C | E=FGF x4 | %39
 E4- | x4 E2 x2 | x8 | x8 | _E4- | E4 | D4 | _D4 | _E4 | x z z2 | x8 | x2 z2 | x8 | x8 | =E4- | %54
 E4 | ^D4- | D4 | ^C4 | B,4 | ^A,4 | [^G,B,]4 | ^A,4 | =D2 F>C | x8 | x8 | x8 | A,4 | DCB,C | %68
 A,4- | A,B,B,C | x4 D2 z2 | x8 | E4 | D2 E2 | F2 ED | x4 C4 | x12 | x12 | x8 | [A,E]4 | x4 FA,GF | %81
 EA,DA, | CA,DB, | A,DA,F, | x4 D,A,G=F | EA,DA, | CA,D_B, | A,2 A,2 | x4 [^G,B,D]4 | x4 [A,D]4 | %90
 x12 | x12 | D4- | D2 B,2 | [A,=C]2 [G,B,]2 | [F,=C]2 A,2 | x4 [G,,G,]3 [E,,E,] x4 | x8 | %98
 x2 [D,,A,,]2 | x4 [D,,A,,]4 x4 |] %100
V:5
 x4 A,4- | x4 A,4 | x4 A,4- | x4 A,4 | x8 D,4- | x8 D,4- | x8 D,4- | x4 D,4- | x4 D,4 | x4 A,4- | %10
 A,4 | A,4 | A,4 | A,3 z | A,,4 | D,4 | =F,2 E,2 | x4 [A,,A,]4 | x8 FA,GF | x4 E2 D2 | x4 CA,DB, | %21
 z4 | x4 D,A,G=F | x4 E2 D2 | x4 CA,D_B, | x4 A,2 ^F,D, | x4 B,4 | A,4 | A,,4 | x4 [D,D]4 | %30
 x8 D2 =F>=C | x8 =C4- | x8 C_B,A,B, | x4 A,4 | x4 =F2 A>=C | z2 =C,D, | E,4 | x4 A,,2 z2 | x8 | %39
 E=D=CB, | x4 A,[I:staff -1] AG=F | x4[I:staff +1] E=FED | x4 A,2 A,2 | A,=CA,G, | =F,4 | %45
 _B,DB,_G, | =F,4 | F,_E,=C,=F,, | [_B,,_B,] z z2 | x4 =F,_E _D=C | _B,2 z2 | x4 =F_GF_E | %52
 x4 _B,2 B,2 | A,CA,^G, | F,4 | B,^DB,^G, | F,4- | F,E,C,F,, | B,,4- | B,,4- | B,,4- | B,,4- | %62
 B,,2 z2 | x4 C4- | x4 CB,=A,B, | x4 A,2 F,E, | D,4 | D,4 | D,4- | D,4- | x4 D,4 | x4 A,4- | A,4 | %73
 A,4- | A,4- | x4 A,4 | x8 [D,A,]4- | x8 [D,A,]4 | x4 [=F,B,D]2 [E,E]2 | x4 | x8 | x4 | x4 | x4 | %84
 x8 | x4 | x4 | x4 | x8 | x8 | x8 [B,DF]4 | x8 [A,DF]4 | B,4 | G,4 | D,4- | D,4 | x12 | %97
 x4 [A,,A,]4 | D,2 x2 | x12 |] %100
V:6
 x8 | x8 | x8 | x8 | x12 | x12 | x12 | x8 | x8 | FDFD x4 | G4 | x2 [Ge]2 | A2 GF | E3 z | G4 | F4 | %16
 ^G4 | [=E=G]4 x4 | x12 | G2 F2 x4 | E2 FG x4 | F4 | =F2 x6 | G2 =F2 x4 | E2 =FG x4 | ^F4 x4 | x8 | %27
 F4 | G4 | FDFD x4 | x12 | x12 | x12 | [D=F]2 [^C=E]2 x4 | =F4 x4 | E4 | E4 | x8 | A4- x4 | A^GFG | %40
 x8 | x B A2 x4 | [A=c]EAc x4 | =c4 | A4 | =F4- | F4- | F4 | _D=F_A_G | =F2 _G_A x4 | z _B_A_G | %51
 _B=cBc x4 | _d=F_Bd x4 | ^c4 | ^A4 | F4- | F4 | E4 | =D4 | C4 | D4 | C4 | F4 | F4- x4 | F4- x4 | %65
 F4- x4 | FDFD | FEDE | FDFD | FDDE | x8 | FDFD x4 | G4 | x2 [Ge]2 | A2 GF | x8 | x12 | x12 | %78
 ^G4 x4 | =G4 | x8 | G2 F2 | E2 FG | F4 | x8 | G2 =F2 | E2 =FG | ^F4 | x8 | x8 | x4 [^Gf]4 x4 | %91
 x4 [Af]4 x4 | =G4 | G2 x2 | D4 | D4 | x12 | [DF]2 [CEG]2 x4 | [DF]2 x2 | x12 |] %100

